X: 1
T:Jerry's Beaver Hat (Returned Yank)
M:6/8
L:1/8
R:Jig
K:D
D|DFA d2 e|fdB BAF|ABA dAF|EFE GFE|DFA d2 e|fdB BAF|ABA dAF|DED D2 :|| 
d|dfa afd|gbg faf|dfa afd|cee ecA|dfa afd|gbg faf|BdB AFA|DED  D2 :||
